X:7003
T:Gardener's Delight
R:Jig
C:Chris Drinkwater, 2011
O:England
Z:Paul Hardy's Possible Tunebook 2015 (see www.paulhardy.net). Creative Commons cc by-nc-sa licenced.
M:6/8
L:1/8
Q:3/8=100
K:G
"G"G2B"D7"A2c|"G"Bdg "C"ece|"G"dBd "D7"cAF|"G"GAB "D7"A2d|
"G"G2B"D7"A2c|"G"Bdg "C"ece|"G"dBd "D7"cAF|cAF "G"G3:|
|:"G"dBd dBd|"D7"cAc cAc|"G"BGB BGB|"D"AFE D2e|1
"G"dBd dBd|"D7"cAc cAc|"G"BGB BGB|"D7"A6:|2
"G"G2B"D7"A2c|"G"Bdg "C"ece|"G"dBd "D7"cAF|cAF "G"G3|]

